X: 14830
T: Gardener's, The
R: jig
M: 6/8
K: Bminor
|:d2B cBA|FAc B2A|B2f fed|cde fdB|
dcB cBA|FAc B2A|Bcd edc|1 B3 B2c:|2 B3 B2A||
|:B2f fed|cde fdB|A2e edc|Bcd edc|
B2f fed|cde fdB|edc ABc|1 B3 B2A:|2 B3 B2c||

